svgs/sharp-light/grid-dividers.svg

<svg xmlns="http://www.w3.org/2000/svg" viewBox="0 0 512 512"><!--! Font Awesome Pro 6.6.0 by @fontawesome - https://fontawesome.com License - https://fontawesome.com/license (Commercial License) Copyright 2024 Fonticons, Inc. --><path d="M0 0L512 0l0 32L0 32 0 0zM64 128l0 64 64 0 0-64-64 0zM32 96l32 0 64 0 32 0 0 32 0 64 0 32-32 0-64 0-32 0 0-32 0-64 0-32zM64 416l0 64 64 0 0-64-64 0zM32 384l32 0 64 0 32 0 0 32 0 64 0 32-32 0-64 0-32 0 0-32 0-64 0-32zM288 128l-64 0 0 64 64 0 0-64zM224 96l64 0 32 0 0 32 0 64 0 32-32 0-64 0-32 0 0-32 0-64 0-32 32 0zm0 320l0 64 64 0 0-64-64 0zm-32-32l32 0 64 0 32 0 0 32 0 64 0 32-32 0-64 0-32 0 0-32 0-64 0-32zM448 128l-64 0 0 64 64 0 0-64zM384 96l64 0 32 0 0 32 0 64 0 32-32 0-64 0-32 0 0-32 0-64 0-32 32 0zm0 320l0 64 64 0 0-64-64 0zm-32-32l32 0 64 0 32 0 0 32 0 64 0 32-32 0-64 0-32 0 0-32 0-64 0-32zm160-96l0 32L0 320l0-32 512 0z"/></svg>

<svg xmlns="http://www.w3.org/2000/svg" viewBox="0 0 512 512"><!--! Font Awesome Pro 6.4.2 by @fontawesome - https://fontawesome.com License - https://fontawesome.com/license (Commercial License) Copyright 2023 Fonticons, Inc. --><path d="M0 0H512V32H0V0zM64 128v64h64V128H64zM32 96H64h64 32v32 64 32H128 64 32V192 128 96zM64 416v64h64V416H64zM32 384H64h64 32v32 64 32H128 64 32V480 416 384zM288 128H224v64h64V128zM224 96h64 32v32 64 32H288 224 192V192 128 96h32zm0 320v64h64V416H224zm-32-32h32 64 32v32 64 32H288 224 192V480 416 384zM448 128H384v64h64V128zM384 96h64 32v32 64 32H448 384 352V192 128 96h32zm0 320v64h64V416H384zm-32-32h32 64 32v32 64 32H448 384 352V480 416 384zm160-96v32H0V288H512z"/></svg>
